metalslug/_inc/system.svg

<svg xmlns="http://www.w3.org/2000/svg"><g fill="#fff"><path d="m456.996 266.346c-8.079-2.127-15.567-6.345-20.178-11.349-2.679-2.916-5.751-8.001-7.014-11.664-.747-2.208-.786-3.27-.786-34.482 0-27.621.078-32.469.591-33.888 2.364-6.66 8.826-14.934 14.226-18.246 2.994-1.812 7.722-3.663 11.742-4.608 3.033-.75 4.926-.789 37.791-.789h34.557v19.701 19.704h-17.73-17.733v-3.744-3.744h-9.261c-10.995 0-12.414.318-15.252 3.51-3.072 3.426-3.072 3.468-3.072 22.698v16.944l1.143 1.968c1.734 3.036 3.978 5.124 6.501 6.069 2.049.75 3.036.828 11.862.828h9.654v-3.939-3.942h-8.472-8.472v-13.791-13.794h26.598 26.598v33.495 33.495l-35.937-.039c-20.766 0-36.567-.195-37.356-.393z"/><path d="m92.487 246.327v-20.136h17.772 17.775l-.159 4.335-.117 4.332h11.31c6.186 0 11.547-.117 11.901-.234.945-.354.747-1.458-.435-2.601-.63-.552-6.936-4.809-14.106-9.456-33.258-21.636-32.826-21.321-36.807-26.718-4.02-5.439-5.163-8.748-5.163-15.369 0-6.894 1.617-11.94 5.361-16.668 3.468-4.335 10.521-8.67 17.889-10.917l4.533-1.38 32.628-.117 32.589-.12v19.548 19.506h-18.129-18.126v-3.942-3.939l-6.579.078c-5.676.12-6.621.198-6.738.747-.081.435 1.851 1.854 6.423 4.731 9.024 5.634 29.712 19.347 33.417 22.146 7.644 5.793 12.687 13.833 13.632 21.753.552 4.491.552 9.258 0 12.255-.198 1.26-1.26 4.098-2.322 6.303-1.617 3.312-2.367 4.377-4.614 6.504-4.806 4.452-9.573 6.66-18.282 8.313-4.374.828-5.559.828-39.051.987l-34.602.156z"/><path d="m197.703 250.227v-16.155h5.121 5.124l-.078-25.101-.117-25.14-5.007-.12-5.043-.12v-16.116-16.155h28.371 28.374v16.155 16.116l-4.806.12-4.848.12-.117 24.942-.081 24.903 10.914-.078 10.956-.117v-5.319-5.319h18.72 18.717l.117 3.939c.078 2.169 0 11.979-.117 21.792l-.276 17.811h-52.962-52.962z"/><path d="m341.85 265.953c-4.845-.711-11.268-3.429-15.96-6.741-5.436-3.783-8.313-7.485-10.086-12.807l-1.026-3.111-.276-30.225-.276-30.225h-4.491-4.452v-15.762-15.762h26.007 26.007v15.762 15.723l-3.426.117-3.471.12v24.588 24.588l1.104.831c1.065.786 1.578.828 11.31.828 9.735 0 10.248-.042 11.31-.828l1.104-.831.117-24.705.081-24.669h-3.549-3.546v-15.762-15.762l26.127.078 26.088.117.117 15.684.078 15.645h-4.728-4.689l-.12 31.446-.117 31.407-1.458 2.955c-3.903 7.92-11.901 14.067-21.633 16.629-3.192.828-4.059.867-23.604.948-11.154.039-21.318-.081-22.542-.276z"/><path d="m.003 140.208c.117-.279 3.624-6.621 7.842-14.109l7.686-13.596 7.683-.117 7.683-.078 9.774-17.457c5.397-9.576 15.21-27.072 21.87-38.895 6.618-11.82 12.807-22.857 13.752-24.51l1.656-3.072-7.488-.081-7.488-.117 7.923-14.109 7.959-14.067 24.825.078 24.867.12.195 13.911.198 13.908 2.364-4.137c1.299-2.247 4.926-8.55 8.079-13.989l5.712-9.852 21.399-.039h21.357v6.228c0 3.387-.117 9.771-.273 14.145l-.24 8.001h-4.491-4.455v41.964 41.97h4.731 4.728v6.225c0 3.39-.117 9.774-.273 14.187l-.24 7.959h-29.121-29.079v-14.184-14.187h4.137 4.137v-8.748c0-4.848-.159-8.592-.354-8.355-.159.198-1.812 2.916-3.666 6.069-1.851 3.153-5.28 8.985-7.644 13.002-2.364 3.984-6.777 11.508-9.852 16.749l-5.517 9.459-11.901.117-11.898.078-.081-22.815-.117-22.815-5.241 9.102c-2.88 5.043-8.748 15.249-13.044 22.737l-7.842 13.596-30.225.117c-24.156.078-30.186 0-30.027-.393z"/><path d="m197.583 132.918c-.156-4.257-.273-10.641-.273-14.187v-6.423h4.137 4.137v-21.87-21.87h-4.137-4.137v-14.385-14.382h45.12 45.12v16.746 16.749l-16.434-.078-16.47-.12-.12-2.244-.117-2.286h-7.644-7.686v3.546 3.546h10.836 10.839v13.203 13.2h-10.839-10.836v5.121 5.124h7.686 7.644l.117-3.429.12-3.468 16.47-.117 16.434-.081v17.733 17.733h-44.844-44.886z"/><path d="m318.678 126.297v-14.382h5.52 5.514v-21.477-21.477h-1.143c-1.143 0-1.182.078-1.299 2.088l-.117 2.049h-14.778-14.778l-.117-16.668-.078-16.629h49.059 49.062l-.081 16.629-.117 16.668-14.856.12-14.895.078v-2.562-2.559h-1.578-1.575v21.867 21.873h5.91 5.913v14.382 14.382h-27.783-27.783z"/><path d="m384.093 126.495v-14.148l5.952-.117 5.952-.12 2.679-4.728c1.458-2.601 6.933-12.333 12.174-21.633 5.202-9.261 9.498-17.025 9.498-17.22 0-.198-2.127-.396-4.728-.435l-4.692-.117 7.962-13.992 7.998-13.986h33.498 33.453l.12 14.106.078 14.07h-4.335-4.335v22.065 22.068h4.335 4.335v14.187 14.184h-37.2-37.239l2.484-4.413c1.338-2.442 3.39-6.147 4.491-8.196 1.104-2.049 3.468-6.384 5.283-9.654l3.309-5.913 8.748-.117 8.748-.078v-17.22c0-9.459-.078-17.103-.156-17.025-.12.078-3.075 5.202-6.621 11.388-3.588 6.189-11.706 20.217-18.048 31.251l-11.628 19.977h-16.035-16.08z"/><path d="m504.675 126.495v-14.187h4.533 4.533v-22.068-22.065h-4.533-4.533v-14.19-14.184l25.341.078 25.299.12.117 14.106.078 14.07h-4.332-4.338v21.867 21.873h9.774 9.735l-.12-4.731-.12-4.728 16.866.078 16.869.12.117 1.968c.078 1.104.039 9.654-.117 19.035l-.279 17.022h-47.445-47.445z"/></g></svg>

<?xml version="1.0" encoding="utf-8"?>
<svg version="1.0" xmlns="http://www.w3.org/2000/svg">
  <g>
    <path d="M 456.996 266.346 C 448.917 264.219 441.429 260.001 436.818 254.997 C 434.139 252.081 431.067 246.996 429.804 243.333 C 429.057 241.125 429.018 240.063 429.018 208.851 C 429.018 181.23 429.096 176.382 429.609 174.963 C 431.973 168.303 438.435 160.029 443.835 156.717 C 446.829 154.905 451.557 153.054 455.577 152.109 C 458.61 151.359 460.503 151.32 493.368 151.32 L 527.925 151.32 L 527.925 171.021 L 527.925 190.725 L 510.195 190.725 L 492.462 190.725 L 492.462 186.981 L 492.462 183.237 L 483.201 183.237 C 472.206 183.237 470.787 183.555 467.949 186.747 C 464.877 190.173 464.877 190.215 464.877 209.445 L 464.877 226.389 L 466.02 228.357 C 467.754 231.393 469.998 233.481 472.521 234.426 C 474.57 235.176 475.557 235.254 484.383 235.254 L 494.037 235.254 L 494.037 231.315 L 494.037 227.373 L 485.565 227.373 L 477.093 227.373 L 477.093 213.582 L 477.093 199.788 L 503.691 199.788 L 530.289 199.788 L 530.289 233.283 L 530.289 266.778 L 494.352 266.739 C 473.586 266.739 457.785 266.544 456.996 266.346 Z" style="fill: rgb(255, 255, 255);"/>
    <path d="M 92.487 246.327 L 92.487 226.191 L 110.259 226.191 L 128.034 226.191 L 127.875 230.526 L 127.758 234.858 L 139.068 234.858 C 145.254 234.858 150.615 234.741 150.969 234.624 C 151.914 234.27 151.716 233.166 150.534 232.023 C 149.904 231.471 143.598 227.214 136.428 222.567 C 103.17 200.931 103.602 201.246 99.621 195.849 C 95.601 190.41 94.458 187.101 94.458 180.48 C 94.458 173.586 96.075 168.54 99.819 163.812 C 103.287 159.477 110.34 155.142 117.708 152.895 L 122.241 151.515 L 154.869 151.398 L 187.458 151.278 L 187.458 170.826 L 187.458 190.332 L 169.329 190.332 L 151.203 190.332 L 151.203 186.39 L 151.203 182.451 L 144.624 182.529 C 138.948 182.649 138.003 182.727 137.886 183.276 C 137.805 183.711 139.737 185.13 144.309 188.007 C 153.333 193.641 174.021 207.354 177.726 210.153 C 185.37 215.946 190.413 223.986 191.358 231.906 C 191.91 236.397 191.91 241.164 191.358 244.161 C 191.16 245.421 190.098 248.259 189.036 250.464 C 187.419 253.776 186.669 254.841 184.422 256.968 C 179.616 261.42 174.849 263.628 166.14 265.281 C 161.766 266.109 160.581 266.109 127.089 266.268 L 92.487 266.424 L 92.487 246.327 Z" style="fill: rgb(255, 255, 255);"/>
    <path d="M 197.703 250.227 L 197.703 234.072 L 202.824 234.072 L 207.948 234.072 L 207.87 208.971 L 207.753 183.831 L 202.746 183.711 L 197.703 183.591 L 197.703 167.475 L 197.703 151.32 L 226.074 151.32 L 254.448 151.32 L 254.448 167.475 L 254.448 183.591 L 249.642 183.711 L 244.794 183.831 L 244.677 208.773 L 244.596 233.676 L 255.51 233.598 L 266.466 233.481 L 266.466 228.162 L 266.466 222.843 L 285.186 222.843 L 303.903 222.843 L 304.02 226.782 C 304.098 228.951 304.02 238.761 303.903 248.574 L 303.627 266.385 L 250.665 266.385 L 197.703 266.385 L 197.703 250.227 Z" style="fill: rgb(255, 255, 255);"/>
    <path d="M 341.85 265.953 C 337.005 265.242 330.582 262.524 325.89 259.212 C 320.454 255.429 317.577 251.727 315.804 246.405 L 314.778 243.294 L 314.502 213.069 L 314.226 182.844 L 309.735 182.844 L 305.283 182.844 L 305.283 167.082 L 305.283 151.32 L 331.29 151.32 L 357.297 151.32 L 357.297 167.082 L 357.297 182.805 L 353.871 182.922 L 350.4 183.042 L 350.4 207.63 L 350.4 232.218 L 351.504 233.049 C 352.569 233.835 353.082 233.877 362.814 233.877 C 372.549 233.877 373.062 233.835 374.124 233.049 L 375.228 232.218 L 375.345 207.513 L 375.426 182.844 L 371.877 182.844 L 368.331 182.844 L 368.331 167.082 L 368.331 151.32 L 394.458 151.398 L 420.546 151.515 L 420.663 167.199 L 420.741 182.844 L 416.013 182.844 L 411.324 182.844 L 411.204 214.29 L 411.087 245.697 L 409.629 248.652 C 405.726 256.572 397.728 262.719 387.996 265.281 C 384.804 266.109 383.937 266.148 364.392 266.229 C 353.238 266.268 343.074 266.148 341.85 265.953 Z" style="fill: rgb(255, 255, 255);"/>
    <path d="M 0.003 140.208 C 0.12 139.929 3.627 133.587 7.845 126.099 L 15.531 112.503 L 23.214 112.386 L 30.897 112.308 L 40.671 94.851 C 46.068 85.275 55.881 67.779 62.541 55.956 C 69.159 44.136 75.348 33.099 76.293 31.446 L 77.949 28.374 L 70.461 28.293 L 62.973 28.176 L 70.896 14.067 L 78.855 0 L 103.68 0.078 L 128.547 0.198 L 128.742 14.109 L 128.94 28.017 L 131.304 23.88 C 132.603 21.633 136.23 15.33 139.383 9.891 L 145.095 0.039 L 166.494 0 L 187.851 0 L 187.851 6.228 C 187.851 9.615 187.734 15.999 187.578 20.373 L 187.338 28.374 L 182.847 28.374 L 178.392 28.374 L 178.392 70.338 L 178.392 112.308 L 183.123 112.308 L 187.851 112.308 L 187.851 118.533 C 187.851 121.923 187.734 128.307 187.578 132.72 L 187.338 140.679 L 158.217 140.679 L 129.138 140.679 L 129.138 126.495 L 129.138 112.308 L 133.275 112.308 L 137.412 112.308 L 137.412 103.56 C 137.412 98.712 137.253 94.968 137.058 95.205 C 136.899 95.403 135.246 98.121 133.392 101.274 C 131.541 104.427 128.112 110.259 125.748 114.276 C 123.384 118.26 118.971 125.784 115.896 131.025 L 110.379 140.484 L 98.478 140.601 L 86.58 140.679 L 86.499 117.864 L 86.382 95.049 L 81.141 104.151 C 78.261 109.194 72.393 119.4 68.097 126.888 L 60.255 140.484 L 30.03 140.601 C 5.874 140.679 -0.156 140.601 0.003 140.208 Z" style="fill: rgb(255, 255, 255);"/>
    <path d="M 197.583 132.918 C 197.427 128.661 197.31 122.277 197.31 118.731 L 197.31 112.308 L 201.447 112.308 L 205.584 112.308 L 205.584 90.438 L 205.584 68.568 L 201.447 68.568 L 197.31 68.568 L 197.31 54.183 L 197.31 39.801 L 242.43 39.801 L 287.55 39.801 L 287.55 56.547 L 287.55 73.296 L 271.116 73.218 L 254.646 73.098 L 254.526 70.854 L 254.409 68.568 L 246.765 68.568 L 239.079 68.568 L 239.079 72.114 L 239.079 75.66 L 249.915 75.66 L 260.754 75.66 L 260.754 88.863 L 260.754 102.063 L 249.915 102.063 L 239.079 102.063 L 239.079 107.184 L 239.079 112.308 L 246.765 112.308 L 254.409 112.308 L 254.526 108.879 L 254.646 105.411 L 271.116 105.294 L 287.55 105.213 L 287.55 122.946 L 287.55 140.679 L 242.706 140.679 L 197.82 140.679 L 197.583 132.918 Z" style="fill: rgb(255, 255, 255);"/>
    <path d="M 318.678 126.297 L 318.678 111.915 L 324.198 111.915 L 329.712 111.915 L 329.712 90.438 L 329.712 68.961 L 328.569 68.961 C 327.426 68.961 327.387 69.039 327.27 71.049 L 327.153 73.098 L 312.375 73.098 L 297.597 73.098 L 297.48 56.43 L 297.402 39.801 L 346.461 39.801 L 395.523 39.801 L 395.442 56.43 L 395.325 73.098 L 380.469 73.218 L 365.574 73.296 L 365.574 70.734 L 365.574 68.175 L 363.996 68.175 L 362.421 68.175 L 362.421 90.042 L 362.421 111.915 L 368.331 111.915 L 374.244 111.915 L 374.244 126.297 L 374.244 140.679 L 346.461 140.679 L 318.678 140.679 L 318.678 126.297 Z" style="fill: rgb(255, 255, 255);"/>
    <path d="M 384.093 126.495 L 384.093 112.347 L 390.045 112.23 L 395.997 112.11 L 398.676 107.382 C 400.134 104.781 405.609 95.049 410.85 85.749 C 416.052 76.488 420.348 68.724 420.348 68.529 C 420.348 68.331 418.221 68.133 415.62 68.094 L 410.928 67.977 L 418.89 53.985 L 426.888 39.999 L 460.386 39.999 L 493.839 39.999 L 493.959 54.105 L 494.037 68.175 L 489.702 68.175 L 485.367 68.175 L 485.367 90.24 L 485.367 112.308 L 489.702 112.308 L 494.037 112.308 L 494.037 126.495 L 494.037 140.679 L 456.837 140.679 L 419.598 140.679 L 422.082 136.266 C 423.42 133.824 425.472 130.119 426.573 128.07 C 427.677 126.021 430.041 121.686 431.856 118.416 L 435.165 112.503 L 443.913 112.386 L 452.661 112.308 L 452.661 95.088 C 452.661 85.629 452.583 77.985 452.505 78.063 C 452.385 78.141 449.43 83.265 445.884 89.451 C 442.296 95.64 434.178 109.668 427.836 120.702 L 416.208 140.679 L 400.173 140.679 L 384.093 140.679 L 384.093 126.495 Z" style="fill: rgb(255, 255, 255);"/>
    <path d="M 504.675 126.495 L 504.675 112.308 L 509.208 112.308 L 513.741 112.308 L 513.741 90.24 L 513.741 68.175 L 509.208 68.175 L 504.675 68.175 L 504.675 53.985 L 504.675 39.801 L 530.016 39.879 L 555.315 39.999 L 555.432 54.105 L 555.51 68.175 L 551.178 68.175 L 546.84 68.175 L 546.84 90.042 L 546.84 111.915 L 556.614 111.915 L 566.349 111.915 L 566.229 107.184 L 566.109 102.456 L 582.975 102.534 L 599.844 102.654 L 599.961 104.622 C 600.039 105.726 600 114.276 599.844 123.657 L 599.565 140.679 L 552.12 140.679 L 504.675 140.679 L 504.675 126.495 Z" style="fill: rgb(255, 255, 255);"/>
  </g>
</svg>
